img/logo-letters.svg

<svg xmlns="http://www.w3.org/2000/svg" viewBox="0 0 129.37 17.65"><defs><style>.cls-1{fill:#fff}</style></defs><g id="Layer_2" data-name="Layer 2"><g id="Layer_1-2" data-name="Layer 1"><path class="cls-1" d="M21.64 0v17.65H0V0h1.84v16h8.07V0h1.84v16h8.05V0zM40.8 12.94H31l-2.12 4.71h-1.97L35 0h1.84l8.07 17.65h-2zm-.68-1.52l-4.24-9.48-4.23 9.48zM65 0v17.65h-1.81v-16H52v16h-1.82V0zM78.75 9.56h-4v8.09H72.9V0h1.82v7.92h4l6-7.92h2l-6.53 8.57 6.94 9.08H85zM91.92 0h1.84v14.63L105.06 0h1.69v17.65h-1.84V3.05l-11.3 14.6h-1.69zM129.37 0v17.65h-1.84V9.51h-11v8.14h-1.87V0h1.87v7.87h11V0z"/></g></g></svg>

<svg xmlns="http://www.w3.org/2000/svg" viewBox="0 0 129.37 17.65"><defs><style>.cls-1{fill:#fff;}</style></defs><title>Написание cyr white</title><g id="Layer_2" data-name="Layer 2"><g id="Layer_1-2" data-name="Layer 1"><path class="cls-1" d="M21.64,0V17.65H0V0H1.84V16H9.91V0h1.84V16H19.8V0Z"/><path class="cls-1" d="M40.8,12.94H31l-2.12,4.71H26.91L35,0h1.84l8.07,17.65h-2Zm-.68-1.52L35.88,1.94l-4.23,9.48Z"/><path class="cls-1" d="M65,0V17.65H63.19v-16H52v16H50.18V0Z"/><path class="cls-1" d="M78.75,9.56h-4v8.09H72.9V0h1.82V7.92h4l6-7.92h2L80.19,8.57l6.94,9.08H85Z"/><path class="cls-1" d="M91.92,0h1.84V14.63L105.06,0h1.69V17.65h-1.84V3.05l-11.3,14.6H91.92Z"/><path class="cls-1" d="M129.37,0V17.65h-1.84V9.51h-11v8.14h-1.87V0h1.87V7.87h11V0Z"/></g></g></svg>
